static/images/inverted-commas.svg

<svg fill="none" height="100" viewBox="0 0 136 100" width="136" xmlns="http://www.w3.org/2000/svg"><path d="m61.005 0-20.58 68.845-8.085-30.87c9.6367 0 17.395 2.695 23.275 8.085 6.0433 5.39 9.065 12.9033 9.065 22.54 0 9.4733-3.1033 17.0683-9.31 22.785-6.0433 5.7167-13.72 8.575-23.03 8.575s-17.0683-2.8583-23.275-8.575c-6.04333-5.7167-9.065-13.3117-9.065-22.785 0-2.6133.163333-5.2267.49-7.84.49-2.6133 1.38833-5.7983 2.695-9.555 1.47-3.7567 3.59333-8.6567 6.37-14.7l17.15-36.505zm71.05 0-20.58 68.845-8.085-30.87c9.637 0 17.395 2.695 23.275 8.085 6.043 5.39 9.065 12.9033 9.065 22.54 0 9.4733-3.103 17.0683-9.31 22.785-6.043 5.7167-13.72 8.575-23.03 8.575s-17.0683-2.8583-23.275-8.575c-6.0433-5.7167-9.065-13.3117-9.065-22.785 0-2.6133.1633-5.2267.49-7.84.49-2.6133 1.3883-5.7983 2.695-9.555 1.47-3.7567 3.5933-8.6567 6.37-14.7l17.15-36.505z" fill="#f7931e"/></svg>

<svg width="136" height="100" viewBox="0 0 136 100" fill="none" xmlns="http://www.w3.org/2000/svg">
<path d="M61.005 0L40.425 68.845L32.34 37.975C41.9767 37.975 49.735 40.67 55.615 46.06C61.6583 51.45 64.68 58.9633 64.68 68.6C64.68 78.0733 61.5767 85.6683 55.37 91.385C49.3267 97.1017 41.65 99.96 32.34 99.96C23.03 99.96 15.2717 97.1017 9.065 91.385C3.02167 85.6683 0 78.0733 0 68.6C0 65.9867 0.163333 63.3733 0.49 60.76C0.98 58.1467 1.87833 54.9617 3.185 51.205C4.655 47.4483 6.77833 42.5483 9.555 36.505L26.705 0H61.005ZM132.055 0L111.475 68.845L103.39 37.975C113.027 37.975 120.785 40.67 126.665 46.06C132.708 51.45 135.73 58.9633 135.73 68.6C135.73 78.0733 132.627 85.6683 126.42 91.385C120.377 97.1017 112.7 99.96 103.39 99.96C94.08 99.96 86.3217 97.1017 80.115 91.385C74.0717 85.6683 71.05 78.0733 71.05 68.6C71.05 65.9867 71.2133 63.3733 71.54 60.76C72.03 58.1467 72.9283 54.9617 74.235 51.205C75.705 47.4483 77.8283 42.5483 80.605 36.505L97.755 0H132.055Z" fill="#F7931E"/>
</svg>
